app/javascript/images/toc-podcast.svg

<?xml version="1.0" encoding="UTF-8"?>
<svg width="26px" height="18px" viewBox="0 0 26 18" version="1.1" xmlns="http://www.w3.org/2000/svg" xmlns:xlink="http://www.w3.org/1999/xlink">
    <!-- Generator: Sketch 42 (36781) - http://www.bohemiancoding.com/sketch -->
    <title>Fill 874 + Fill 875 Copy 2</title>
    <desc>Created with Sketch.</desc>
    <defs></defs>
    <g id="Page-1" stroke="none" stroke-width="1" fill="none" fill-rule="evenodd">
        <g id="Fill-874-+-Fill-875-Copy-2" fill="#EBEAE5">
            <path d="M21.1522235,7.99284706 C20.9023412,3.54472941 17.2155176,-0.000211764706 12.7059882,-0.000211764706 C8.19645882,-0.000211764706 4.50963529,3.54472941 4.25975294,7.99284706 C1.87210588,8.24802353 0.000105882353,10.2513176 0.000105882353,12.7056706 C0.000105882353,15.3336706 2.13787059,17.4703765 4.76481176,17.4703765 C5.05704706,17.4703765 5.29422353,17.2342588 5.29422353,16.9409647 L5.29422353,8.47037647 C5.29422353,4.38331765 8.61892941,1.05861176 12.7059882,1.05861176 C16.7930471,1.05861176 20.1177529,4.38331765 20.1177529,8.47037647 L20.1177529,16.9409647 C20.1177529,17.2342588 20.3549294,17.4703765 20.6471647,17.4703765 C23.2741059,17.4703765 25.4118706,15.3336706 25.4118706,12.7056706 C25.4118706,10.2513176 23.5398706,8.24802353 21.1522235,7.99284706" id="Fill-874"></path>
            <path d="M18.5294118,12.7058824 L16.9411765,12.7058824 C16.7410588,12.7058824 16.5578824,12.8191765 16.4678824,12.9981176 L15.5541176,14.8256471 L14.2824706,8.88882353 C14.2337647,8.66117647 14.0421176,8.49282353 13.8091765,8.47270588 C13.5635294,8.44729412 13.3602353,8.58811765 13.2734118,8.80305882 L11.5930588,13.0023529 L10.5321176,10.8804706 C10.4505882,10.7174118 10.2885882,10.6072941 10.1064706,10.5903529 C9.918,10.5755294 9.74541176,10.6538824 9.63529412,10.8 L8.20588235,12.7058824 L6.88235294,12.7058824 C6.59011765,12.7058824 6.35294118,12.9430588 6.35294118,13.2352941 C6.35294118,13.5275294 6.59011765,13.7647059 6.88235294,13.7647059 L8.47058824,13.7647059 C8.63682353,13.7647059 8.79458824,13.6863529 8.89411765,13.5529412 L9.96882353,12.1203529 L11.1737647,14.5312941 C11.2669412,14.7176471 11.4458824,14.8372941 11.6692941,14.8235294 C11.8768235,14.814 12.0610588,14.6848235 12.1383529,14.4910588 L13.6111765,10.8095294 L14.8351765,16.5218824 C14.8828235,16.7431765 15.0638824,16.9083529 15.2862353,16.9369412 C15.3084706,16.9401176 15.3317647,16.9411765 15.3529412,16.9411765 C15.5509412,16.9411765 15.7362353,16.83 15.8262353,16.6489412 L17.2683529,13.7647059 L18.5294118,13.7647059 C18.8216471,13.7647059 19.0588235,13.5275294 19.0588235,13.2352941 C19.0588235,12.9430588 18.8216471,12.7058824 18.5294118,12.7058824" id="Fill-875"></path>
        </g>
    </g>
</svg>

<svg width="26" height="18" viewBox="0 0 26 18" xmlns="http://www.w3.org/2000/svg"><g fill="#EBEAE5" fill-rule="evenodd"><path d="M21.152 7.993C20.902 3.545 17.216 0 12.706 0S4.51 3.545 4.26 7.993C1.872 8.248 0 10.25 0 12.706a4.77 4.77 0 0 0 4.765 4.764.53.53 0 0 0 .53-.529v-8.47c0-4.088 3.324-7.412 7.411-7.412s7.412 3.324 7.412 7.411v8.471c0 .293.237.53.53.53a4.77 4.77 0 0 0 4.764-4.765c0-2.455-1.872-4.458-4.26-4.713"/><path d="M18.53 12.706h-1.59a.53.53 0 0 0-.473.292l-.914 1.828-1.272-5.937a.53.53 0 0 0-.473-.416.513.513 0 0 0-.536.33l-1.68 4.2-1.06-2.123a.532.532 0 0 0-.898-.08l-1.43 1.906H6.883a.53.53 0 0 0 0 1.059h1.589a.529.529 0 0 0 .423-.212L9.97 12.12l1.205 2.411a.507.507 0 0 0 .495.293.53.53 0 0 0 .47-.333l1.472-3.681 1.224 5.712a.53.53 0 0 0 .991.127l1.442-2.884h1.261a.53.53 0 0 0 0-1.06"/></g></svg>
